X: 821
T: Lame Crowley
N:"Collected by F.O'Neill"
B:O'Neill's 821
Z:Transcribed by Dan G. Petersen, dangp@post6.tele.dk
M:6/8
L:1/8
K:G
dBA A2c|BAB G2e|dBA ABd|e2d efg|
dBA A2c|BAB G2e|gbg faf|e2d efg:|
def g2g|agf g2g|def g2a|bge edB|
def g2g|agf g2g|bag agf|e2d efg:|


